!! 00000] TT[WS
!!!OTL: Chanjun xiaodiao
!!!ARE: Asia, China, Shanxi LÅliang
!! Ethnic Group: Han
!! WII, 229 (2)
!!!SCT: J0741
!!!YEM: Copyright 1995, estate of Helmut Schaffrath.
**kern
*ICvox
*Ivox
!! 3+2 metric grouping
!! Mixed meters:  5/8; 4/8
*M4/8
*k[b-]
*F:
{8cc
8cc
8b-
4cc
=1
4dd
8a
4g
=2
8cc
8cc
8b-
4cc
=3
4dd
8a
4g}
=4
{4ff
16dd
16dd
8ff
8dd
=5
16cc
16cc
8ff
8cc
8b-
=6
8g
16g
16f
8e
8f
=7
4g
8d
4c}
==
!!!AGN: Xiaodiao. XÅshi, Xinminge
!!!ONB: ESAC (Essen Associative Code) Database: CHINA
!!!AMT: irregular
!!!AIN: vox
!!!EED: Helmut Schaffrath
!!!EEV: 1.0
*-
